X:128
T: Union Pipe Gavott
N: O'Farrell's Pocket Companion v.2 (Sky ed. p.70)
M: C
L: 1/8
Q: 160
K: G
d|g2 b/a/g/f/ gGBd|gdad bb/a/ g>b|a/b/a/b/ g/a/g/a/ f/g/f/e/ d/e/f/g/|
a/b/a/b/ g/a/g/a/ f/g/f/e/ d/e/f/g/|addd bd de/f/|g2 f2 ec df/g/|
a2 ba/g/ f/e/d/c/ dg|f2 e2 d3 :|
d|gagf eccf/g/|abag fddg/a/|bc'ba gee>b|c'2 b2 a3d|gb ba/g/ faad|
gb ba/g/ f/g/a/b/ ad|e/g/f/g/ d/g/f/g/ c/g/f/g/ Bd|g2 f2 edec'|
b2 a2 g3B|ce ed/c/ BddG|ce ed/c/ B/A/G/F/ G>c|B2 A2 G3 :|
